X: 128
T: REEL: First of August
C: C: Donough Hennessy; S: Various
C: Set Leaders: Vova, Anton
Z: Oleg Naumov arr.; Erik-Fiddler at The Session
N: https://thesession.org/members/26966/sets/96726
R: Reel
M: 4/4
L: 1/8
Q: 1/2=100
K: Edor
|:"Em"DE E/E/E GEGA|"G"B/B/B Bd BAGB|"D"A/B/A AB AGEG|"A"B/d/e dB AGEG|
"Em"DE E/E/E GEGA|"G"[B3D3]d BAGB|"D"A/A/A AB AGED|1 "A"EGAE GAEG:|2 "A"EGAG ABcd||
|:"C"g2 ag "D"fedB|"Em"[e3B3]d BAGA|"C"EG G/G/G "D"A2 GA|"G"[B3D3]d BAGA|
"Em"EG G/G/G "D"AG G/G/G|"C"B/d/e dB AGEG|"Am"DEGB "D"AGAB|1 "G"G/G/G GF GA B/c/d:|2 "Am"G2 GF "Bm"G2EG||

